X:1
T:Title
%%score { ( 1 4 ) | ( 2 3 ) }
L:1/8
M:3/4
K:D
V:1 treble nm="Grand Piano"
V:4 treble 
V:2 bass 
V:3 bass 
V:1
 z2 z2[Q:1/4=104] D2 | F2 E2 D2 | A>G F2[K:bass] [G,CE]2 | [F,D]4[K:treble] [Fd]2 | %4
 [EAc]2 [^GB]2 [CA]2 | [Ee]>[Fd] [Ec]2 [DB]2 | [CA]4 [EG]2 | F>E D2 B2 | A>G F2 A2 | %9
 B>A B2 [EGc]2 | [DFd]4 [DGB]2 | [DA]>G [DF][CE] [F,B,D][B,EG] | [A,DF]4[K:bass] [G,CE]2 | %13
[M:2/4] [F,D]4 |] %14
V:2
 z2 z2 [D,F,]2 | [A,D]2 z2 z2 | D4 z2 | D,4 [D,A,]2 | z2 D2 F,2 | A,->[D,A,-] [E,A,]2 [E,^G,]2 | %6
 [A,,A,]4 [C,A,]2 | A,2 z2 z2 | [D,D]->[D,E,D-] [D,D]2 [F,D]2 | D->[F,D-] [G,D]2 E,2 | B,,4 G,,2 | %11
 z z/ E/ z G, B,,G,, | A,,4 A,,2 |[M:2/4] D,4 |] %14
V:3
 x6 | D,2- [D,G,C]2 [D,F,]2 | [F,A,]>[G,B,] A,2 A,,2 | x6 | E,4 z2 | C,2 z2 z2 | x6 | %7
 [D,D]->[D,-G,D] [D,F,]2 [D,G,D]2 | F,2 z2 z2 | G,2 z2 z2 | x6 | F,,2 A,,2 z2 | x6 |[M:2/4] x4 |] %14
V:4
 x6 | x6 | x4[K:bass] x2 | x4[K:treble] x2 | x6 | x6 | x6 | x6 | x6 | x6 | x6 | A,4 z2 | %12
 x4[K:bass] x2 |[M:2/4] x4 |] %14

